X: 92
T: Quare fremuerunt gentes
N: Derived from Mar2082-Quare_fremuerunt_gentes.krn
C: Johannes Martini
%%abc-version 2.0
%%abcx-abcm2ps-target-version 5.9.1 (29 Sep 2008)
%%abc-creator hum2abc beta
%%abcx-conversion-date 2019/02/17 07:19:42
%%abc-edited-by Jesse Rodin
%%abc-edited-by Chris Gage 03-06-2014
%%abcx-initial-encoding-date 2014/10/09/
%%humdrum-veritas 3932374384
%%humdrum-veritas-data 1998562481
%%linebreak <none>
%%barnumbers 0
L: 1/4
M: 4/2
Q: 1/2=120
V: 1 clef=treble
V: 2 clef=treble-8
V: 3 clef=treble-8
K: C
[V:1] c4c2c2 | 
[V:2] c4e2e2 | 
[V:3] c4A2A2 | 
[V:1] c4c2c2 | 
[V:2] e4e2e2 | 
[V:3] A4A2A2 | 
[V:1] c2c2c4 | 
[V:2] e2e2c4 | 
[V:3] A2A2A4 | 
[V:1] B3AB2c2- | 
[V:2] d3cd2e2- | 
[V:3] G4G2C2- | 
[V:1] c2BAG2A2- | 
[V:2] e2dcB2c2- | 
[V:3] CDEFG2F2- | 
[V:1] A2G4^F2 | 
[V:2] c2B2A4 | 
[V:3] F2G2D4 | 
[V:1] G8 ||  
[V:2] G8 ||  
[V:3] d8 ||  
[V:1] c4c2c2 | 
[V:2] c4e2e2 | 
[V:3] A4A2A2 | 
[V:1] c4B2A2 | 
[V:2] e4d2c2 | 
[V:3] c4G2A2 | 
[V:1] B4A4 | 
[V:2] d4c4 | 
[V:3] G4A4 | 
[V:1] z2c2c2c2 | 
[V:2] e4e2e2 | 
[V:3] A4A2A2 | 
[V:1] c4c2c2 | 
[V:2] e4e2e2 | 
[V:3] A4A2A2 | 
[V:1] c4B4 | 
[V:2] e4d4 | 
[V:3] A2c2G4 | 
[V:1] c2d4c2- | 
[V:2] e2f4e2 | 
[V:3] E2D2F2C2 | 
[V:1] c2B2c4 | 
[V:2] d4c4 | 
[V:3] G4C4 | 
[V:1] z4c4 | 
[V:2] z4e4 | 
[V:3] z4c4 | 
[V:1] c2c2c2c2 | 
[V:2] e2e2e2e2 | 
[V:3] A2A2A2A2 | 
[V:1] c4z2c2 | 
[V:2] c4e4 | 
[V:3] A4A4 | 
[V:1] c2c2c4 | 
[V:2] e2e2e4 | 
[V:3] A2A2A4 | 
[V:1] B3AB2c2- | 
[V:2] d3cd2e2- | 
[V:3] D2G4C2- | 
[V:1] c2BAG2A2- | 
[V:2] e2dcB2c2- | 
[V:3] CDEFG2F2- | 
[V:1] A2G4^F2 | 
[V:2] c2B2A4 | 
[V:3] F2G2D4 | 
[V:1] G8 ||  
[V:2] G8 ||  
[V:3] G8 ||  
[V:1] c4c2c2 | 
[V:2] e4e2e2 | 
[V:3] c4A2A2 | 
[V:1] c4c2c2 | 
[V:2] e4e2e2 | 
[V:3] A4A2A2 | 
[V:1] c4c2d2- | 
[V:2] e4e2f2 | 
[V:3] A4c2B2 | 
[V:1] d2c4B2 | 
[V:2] g2c2d4 | 
[V:3] G2A2G4 | 
[V:1] c4z4 | 
[V:2] c4z4 | 
[V:3] C4z4 | 
[V:1] c4c2c2 | 
[V:2] e4e2e2 | 
[V:3] c4A2A2 | 
[V:1] c2c2c4 | 
[V:2] e2e2e4 | 
[V:3] A2A2A4 | 
[V:1] c2c2c4 | 
[V:2] e2e2e4 | 
[V:3] A2A2A4 | 
[V:1] c4B2A2- | 
[V:2] c4d2c2- | 
[V:3] A4G2A2 | 
[V:1] A2G4^F2 | 
[V:2] c2B2A4 | 
[V:3] F2G2D4 | 
[V:1] G8 ||  
[V:2] G8 ||  
[V:3] d8 ||  
[V:1] c4c2c2 | 
[V:2] c4e2e2 | 
[V:3] c4A2A2 | 
[V:1] c4c2c2 | 
[V:2] e4e2e2 | 
[V:3] A4A2A2 | 
[V:1] c4B4 | 
[V:2] e4d4 | 
[V:3] c4G4 | 
[V:1] A4G3A | 
[V:2] c4B3c | 
[V:3] A2F2G2FE | 
[V:1] B2c4B2 | 
[V:2] d2e2d4 | 
[V:3] D2C2G4 | 
[V:1] c4z4 | 
[V:2] c4z4 | 
[V:3] A4z4 | 
[V:1] c4c2c2 | 
[V:2] e4e2e2 | 
[V:3] A4A2A2 | 
[V:1] c4c4 | 
[V:2] e4e4 | 
[V:3] A4c4 | 
[V:1] B2A4G2- | 
[V:2] d2c4B2 | 
[V:3] G2A2F2G2 | 
[V:1] G2^F2G4 ||  
[V:2] A4G4 ||  
[V:3] D4G4 ||  
[V:1] c4c2c2 | 
[V:2] e4e2e2 | 
[V:3] c4A2A2 | 
[V:1] c4c2c2 | 
[V:2] e4e2e2 | 
[V:3] A4A2A2 | 
[V:1] c4B4 | 
[V:2] e4d4 | 
[V:3] c4G4 | 
[V:1] c2d4c2- | 
[V:2] e2f4e2 | 
[V:3] c2B4c2 | 
[V:1] c2B2c4 | 
[V:2] d4c4 | 
[V:3] G4C4 | 
[V:1] z4c4 | 
[V:2] z4e4 | 
[V:3] z4c4 | 
[V:1] c4c2c2 | 
[V:2] e2e2e4 | 
[V:3] A4A2A2 | 
[V:1] c2c2c4 | 
[V:2] e2e2c4- | 
[V:3] A2A2A4 | 
[V:1] A2c2B2A2- | 
[V:2] c2e2d2c2- | 
[V:3] A4D2F2- | 
[V:1] A2G4^F2 | 
[V:2] c2B2A4 | 
[V:3] F2G2D4 | 
[V:1] G8 ||  
[V:2] G8 ||  
[V:3] d8 ||  
[V:1] c4c2c2 | 
[V:2] c4e2e2 | 
[V:3] c4A2A2 | 
[V:1] c4c2c2 | 
[V:2] e4e2e2 | 
[V:3] A4A2A2 | 
[V:1] c2c2c4 | 
[V:2] e2e2e4 | 
[V:3] A2A2c4 | 
[V:1] B2A4^G2 | 
[V:2] d2c2B4 | 
[V:3] G2A2E4 | 
[V:1] A4z2c2 | 
[V:2] A4e4 | 
[V:3] A4A4 | 
[V:1] c2c2c4 | 
[V:2] e2e2e4 | 
[V:3] A2A2A4 | 
[V:1] c4c2d2- | 
[V:2] e4e2f2- | 
[V:3] A4c2_B2- | 
[V:1] d2c4B2 | 
[V:2] f2e2d4 | 
[V:3] B2c2G4 | 
[V:1] c4z4 | 
[V:2] c4z4 | 
[V:3] C4z4 | 
[V:1] c2c2c4 | 
[V:2] e2e2e4 | 
[V:3] c2c2A4 | 
[V:1] c4B2A2- | 
[V:2] e4d2c2- | 
[V:3] c4G2A2 | 
[V:1] A2G4^F2 | 
[V:2] c2B2A4 | 
[V:3] F2G2D4 | 
[V:1] G8 ||  
[V:2] G8 ||  
[V:3] G8 ||  
[V:1] c2c2c4 | 
[V:2] e2e2e4 | 
[V:3] c2c2A4 | 
[V:1] c2c2c4 | 
[V:2] e2e2e4 | 
[V:3] A2A2A4 | 
[V:1] c4c2c2 | 
[V:2] e4e2e2 | 
[V:3] A4A2A2 | 
[V:1] c2d4c2- | 
[V:2] e2f4e2 | 
[V:3] c2_B4c2 | 
[V:1] c2B2c4 | 
[V:2] d4c4 | 
[V:3] G4C4 | 
[V:1] z4c2c2 | 
[V:2] z4e2e2 | 
[V:3] z4c2c2 | 
[V:1] c2c2c4 | 
[V:2] e2e2e4 | 
[V:3] A2A2A4 | 
[V:1] A2c2B2A2- | 
[V:2] c4d2c2- | 
[V:3] A4G2A2 | 
[V:1] A2G4^F2 | 
[V:2] c2B2A4 | 
[V:3] F2G2D4 | 
[V:1] G8 ||  
[V:2] G8 ||  
[V:3] d8 ||  
[V:1] c2c2c2c2 | 
[V:2] e2e2e2e2 | 
[V:3] A2A2A2A2 | 
[V:1] c4c2c2 | 
[V:2] c4e2e2 | 
[V:3] A4A2A2 | 
[V:1] c2c2c4 | 
[V:2] e2e2e4 | 
[V:3] A2A2A4 | 
[V:1] c4B4 | 
[V:2] e4d4 | 
[V:3] A2c2G4 | 
[V:1] A4G2A2 | 
[V:2] c4B2c2 | 
[V:3] A2F2G2F2 | 
[V:1] A2c4B2 | 
[V:2] d2e2d4 | 
[V:3] D2C2G4 | 
[V:1] c4z4 | 
[V:2] c4z4 | 
[V:3] C4z4 | 
[V:1] c4c2c2 | 
[V:2] e4e2e2 | 
[V:3] c4A2A2 | 
[V:1] c2c2c4 | 
[V:2] e2e2e4 | 
[V:3] A2A2A2c2 | 
[V:1] B4A2c2 | 
[V:2] d4c4 | 
[V:3] G4A4 | 
[V:1] B2A4G2- | 
[V:2] d4c2B2 | 
[V:3] G2D2F2G2 | 
[V:1] G2^F2G4 ||  
[V:2] A4G4 ||  
[V:3] D4G4 ||  
[V:1] c4c2c2 | 
[V:2] c4e2e2 | 
[V:3] c4A2A2 | 
[V:1] c4B4 | 
[V:2] e4d4 | 
[V:3] A2c2G4 | 
[V:1] c2d4c2- | 
[V:2] e2f4e2 | 
[V:3] c2_B4c2 | 
[V:1] c2B2c4 | 
[V:2] d4c4 | 
[V:3] G4C4 | 
[V:1] z4c4 | 
[V:2] z4e4 | 
[V:3] z4c4 | 
[V:1] c4c2c2 | 
[V:2] e4e2e2 | 
[V:3] A4A2A2 | 
[V:1] c2c2c4 | 
[V:2] e2e2e4 | 
[V:3] A2A2A4 | 
[V:1] A2c2B2A2- | 
[V:2] c4d2c2- | 
[V:3] A4G2A2 | 
[V:1] A2G4^F2 | 
[V:2] c2B2A4 | 
[V:3] F2G2D4 | 
[V:1] G8 ||  
[V:2] G8 ||  
[V:3] d8 ||  
[V:1] c4c4 | 
[V:2] e4e4 | 
[V:3] c4A4 | 
[V:1] c2c2c4 | 
[V:2] e2e2e4 | 
[V:3] A2A2A4 | 
[V:1] c2d4c2- | 
[V:2] e2f3ec2 | 
[V:3] c2_B3cA2 | 
[V:1] c2B2c4 | 
[V:2] d4c4 | 
[V:3] G4C4 | 
[V:1] z4c2c2 | 
[V:2] z4e2e2 | 
[V:3] z4c2c2 | 
[V:1] c2c2c4 | 
[V:2] e2e2c4 | 
[V:3] A2A2A4 | 
[V:1] B4A2c2 | 
[V:2] d4c2e2 | 
[V:3] G4A4 | 
[V:1] B2A4G2- | 
[V:2] d2c4B2 | 
[V:3] D2F4G2 | 
[V:1] G2^F2G4 ||  
[V:2] A4G4 ||  
[V:3] D4G4 ||  
[V:1] c4c2c2 | 
[V:2] e4e2e2 | 
[V:3] c4A2A2 | 
[V:1] c2c2c4 | 
[V:2] e2e2e4 | 
[V:3] A2A2A4 | 
[V:1] c2d4c2- | 
[V:2] e2f4e2 | 
[V:3] c2B4c2 | 
[V:1] c2B2c4 | 
[V:2] d4c4 | 
[V:3] G4C4 | 
[V:1] z4c4 | 
[V:2] z4e4 | 
[V:3] z4c4 | 
[V:1] c2c2c4 | 
[V:2] e2e2e4 | 
[V:3] A2A2A4 | 
[V:1] c4A2c2 | 
[V:2] e4c4 | 
[V:3] A4A4 | 
[V:1] B2A4G2- | 
[V:2] d4c2B2 | 
[V:3] G2D2F2G2 | 
[V:1] G2^F2G4 ||  
[V:2] A4G4 ||  
[V:3] D4d4 ||  
[V:1] c2c2c2c2 | 
[V:2] e2e2e2e2 | 
[V:3] c2c2A2A2 | 
[V:1] c4B2A2- | 
[V:2] c4d2c2 | 
[V:3] A4G2A2 | 
[V:1] A2^G2A4 | 
[V:2] B4A4 | 
[V:3] E4A4 | 
[V:1] z2c4c2 | 
[V:2] e2e2e4 | 
[V:3] A2A2A4 | 
[V:1] c4c2B2 | 
[V:2] e4c2d2 | 
[V:3] A4A2G2 | 
[V:1] c2d4c2- | 
[V:2] e2f2g2c2 | 
[V:3] E2D2G2A2 | 
[V:1] c2B2c4 | 
[V:2] d4c4 | 
[V:3] G4C4 | 
[V:1] z4c2c2 | 
[V:2] z4e2e2 | 
[V:3] z4c2c2 | 
[V:1] c2c2c4 | 
[V:2] e2e2c4 | 
[V:3] A2A2A4 | 
[V:1] B4A2c2 | 
[V:2] d4c2e2 | 
[V:3] G4A4 | 
[V:1] B2A4G2- | 
[V:2] d2c4B2 | 
[V:3] D2F4G2 | 
[V:1] G2^F2G4 | 
[V:2] A4G4 | 
[V:3] D4G4 | 
[V:1] c4c4 ||  
[V:2] c4e4 ||  
[V:3] c4A4 ||  
[V:1] c2c2c4 | 
[V:2] e2e2e4 | 
[V:3] A2A2A4 | 
[V:1] c2c2B4 | 
[V:2] e2e2d4 | 
[V:3] c2c2G4 | 
[V:1] c2d4c2- | 
[V:2] e2f3ec2 | 
[V:3] c2B3cA2 | 
[V:1] c2B2c4 | 
[V:2] d4c4 | 
[V:3] G4C4 | 
[V:1] z4c2c2 | 
[V:2] z4e2e2 | 
[V:3] z4c2c2 | 
[V:1] c2c2c4 | 
[V:2] e2e2e4 | 
[V:3] c2c2A2c2 | 
[V:1] B4A4 | 
[V:2] d4c4 | 
[V:3] G4A2F2 | 
[V:1] G3AB2c2- | 
[V:2] B3cd2e2- | 
[V:3] G2FED2C2 | 
[V:1] c2B4A2 | 
[V:2] e2d2c4 | 
[V:3] G4A4 | 
[V:1] B8 |]  
[V:2] B8 |]  
[V:3] E8 |]  



